!!!Xfilter:transpose -t P8
!!!OTL: 1803. Gedanken sind frei.
!!!ARE: Europa, Mitteleuropa, Deutschland, Schlesien; Schweiz; Elsass
!!!SCT: E1803A
!!!TXL: @@DE
!!!YEM: Copyright 1995, estate of Helmut Schaffrath.
**kern	**text
*ICvox	*
*M3/4	*
*k[]	*
*C:	*
!LO:TX:a:t=Mäßig.	!
!LO:TX:a:t=Aus der Schweiʒ 1810. Ebenſo in Schleſien (1840) und Elſaß 1890.	!
{8g	Die
8g	Ge-
=1	=1
4.cc	-dan-
8dd	-ken
8eeL	ſind
8ccJ	.
=2	=2
2g}	frei,
{4e	wer
=3	=3
4f	kann
4d	ſie
4g	er-
=4	=4
4e	-ra-
4c}	-then?
{8g	Sie
8g	.
=5	=5
4.cc	rau-
8dd	-ſchen
8eeL	vor-
8ccJ	.
=6	=6
2g}	-bei
{4e	wie
=7	=7
4f	nächt-
4d	-li-
4g	-che
=8	=8
4e	Schat-
4c}	-ten;
{4cc	Kein
=9	=9
4b	Menſch
4dd	kann
4b	ſie
=10	=10
4cc	wiſ-
4ee}	-ſen,
{4cc	kein
=11	=11
4b	Jä-
4dd	-ger
4b	er-
=12	=12
4cc	-ſchie-
4ee}	-ßen.
{4cc	Es
=13	=13
4.a	blei-
8b	-bet
8ccL	da-
8aJ	.
=14	=14
2g}	-bei
{8ccL	die
8eeJ	Ge-
=15	=15
4dd	-dan-
4cc	-ken
4b	ſind
=16	=16
2cc}	frei.
{4cc	Kein
=17	=17
4b	Menſch
4dd	kann
4b	ſie
=18	=18
4cc	wiſ-
4ee}	-ſen,
{4cc	kein
=19	=19
4b	Jä-
4dd	-ger
4b	er-
=20	=20
4cc	-ſchie-
4ee}	-ßen.
{4cc	Es
=21	=21
4.a	blei-
8b	-bet
8ccL	da-
8aJ	.
=22	=22
2g}	-bei
{8cc	die
8ee	Ge-
=23	=23
4dd	-dan-
4cc	-ken
4b	ſind
=24	=24
2cc}	frei.
==	==
!!!AGN: Freiheits - Lied
!!!ONB: ESAC (Essen Associative Code) Database: ERK3
!!!AMT: simple triple
!!!AIN: vox
!!!EED: Helmut Schaffrath
!!!EEV: 1.0
!!!GTL: Vermischter Inhalt.
!!!URL-scan: https://rosdok.uni-rostock.de/mcrviewer/recordIdentifier/rosdok_ppn745177999/iview2/phys_0579.iview2?x=-4.404412318552431&y=1986.6166550330818&scale=0.6456904138606621&rotation=0&layout=singlePageLayout
!!!ENC: Anna Maria Matuszewska
!!!EEV: 2025/08/01
*-	*-
